client/src/assets/images/Rank5.svg

<svg xmlns="http://www.w3.org/2000/svg" width="32" height="32" fill="none"><path stroke="#4B3F28" d="M1 15v2m.5-2.5H5m0-1h3.5m0-1H12m.5-.5V8.5m1 0V5m1 0V1.5M15 1h2m.5.5V5m1 0v3.5m1 0V12m.5.5h3.5m0 1H27m0 1h3.5m.5.5v2m-.5.5H27m0 1h-3.5m0 1H20m-.5.5v3.5m-1 0V27m-1 0v3.5m-.5.5h-2m-.5-.5V27m-1 0v-3.5m-1 0V20m-.5-.5H8.5m0-1H5m0-1H1.5"/><path fill="#FFC24B" d="M16 16V1.5h-1V5h-1v3.5h-1V12h-1v1h1v1h1v1h1v1h1Z"/><path fill="#FEF0BC" d="M17 1.5h-1V16h1v-1h1v-1h1v-1h1v-1h-1V8.5h-1V5h-1V1.5Z"/><path fill="#FFE073" d="M16 30.5V16h1v1h1v1h1v1h1v1h-1v3.5h-1V27h-1v3.5h-1Z"/><path fill="#C16B1B" d="M15 17v-1h1v14.5h-1V27h-1v-3.5h-1V20h-1v-1h1v-1h1v-1h1Z"/><path stroke="#A25916" d="M13 22.5h3"/><path stroke="#EC9B00" d="M19 22.5h-3m-3-12h-1m-1 1h1M18.5 22v-1m-8-9v1m-1 0v6"/><path fill="#FFDA57" d="M15 16H1.5v-1H5v-1h3.5v-1H13v1h1v1h1v1Z"/><path fill="#F8AF23" d="M1.5 17v-1H15v1h-1v1h-1v1H8.5v-1H5v-1H1.5Z"/><path stroke="#C16B1B" d="M10.5 19v1m1 0v1m1 0v1"/><path fill="#FFC24B" d="M30.5 16H17v1h1v1h1v1h4.5v-1H27v-1h3.5v-1Z"/><path fill="#FFE381" d="M30.5 16H17v-1h1v-1h1v-1h4.5v1H27v1h3.5v1Z"/><path stroke="#4B3F28" d="M20 10.5h1m0 1h1m-1 9h1m-2 1h1m-10 0h1"/><path stroke="#FFE380" d="M13 10.5h6"/><path stroke="#FFDA57" d="M13 21.5h6"/><path stroke="#FFEDAC" d="M16 9.5h3"/><path stroke="#EC9B00" d="M19.5 21v1m1-2v1m1-2v1m1-1v-3"/><path stroke="#FFC227" d="M22.5 16v-3m-1.5-.5h1m-2-1h1m-2-1h1m-4-1h3"/><path stroke="#EC9B00" d="M9.5 13v3"/><path stroke="#C16B1B" d="M9.5 19v-3"/><path stroke="#FFDA57" d="M10.5 13v6"/><path stroke="#4B3F28" d="M5.5 13V9.5m0 13V19m21 3.5V19m0-6V9.5M13 5.5H9.5m13 0H19m3.5 21H19m-6 0H9.5m0-20h-1v2h-2v1M2 14V9m0 14v-5m28 5v-5m0-4V9M3 9V7.5m1 0v-3M3.5 4H7m0-1h1.5M3 23v1.5m1 0v4M8.5 2H14M8.5 30H14m-7.5-7.5v1h2v2h1m13-19h1v2h2v1m-3 16h1v-2h2v-1M23.5 3H25m0 1h3v3.5m1 0V9"/><path stroke="#4B48EA" d="M6.5 6H6v.5h.5V6Z"/><path stroke="#E7FCF6" d="M7.5 4.5V8"/><path stroke="#A2FDF2" d="M4.5 5H7"/><path stroke="#36CAB8" d="M5 5.5V8"/><path stroke="#E7FCF6" d="M7.5 4.5V8"/><path stroke="#A2FDF2" d="M4.5 5H7"/><path stroke="#36CAB8" d="M5 5.5V8"/><path stroke="#23EED6" d="M5.5 7.5H8"/><path stroke="#4B48EA" d="M16.5 15.5h-1v1h1v-1Z"/><path stroke="#FFE380" d="M18.5 13v1"/><path stroke="#FFDA57" d="M14 13.5h-1"/><path stroke="#FFC227" d="M14 13.5h4m.5.5v4"/><path stroke="#FFB700" d="M18 18.5h-4"/><path stroke="#FFDA57" d="M13.5 18v1"/><path stroke="#FFE380" d="M19 18.5h-1"/><path stroke="#E7FCF6" d="M17.5 14v4"/><path stroke="#A2FDF2" d="M14 14.5h3"/><path stroke="#36CAB8" d="M14.5 15v3"/><path stroke="#23EED6" d="M15 17.5h3"/><path stroke="#4B48EA" d="M26 6h-.5v.5h.5V6Z"/><path stroke="#E7FCF6" d="M27 4.5V8"/><path stroke="#A2FDF2" d="M24 5h2.5"/><path stroke="#36CAB8" d="M24.5 5.5V8"/><path stroke="#23EED6" d="M25 7.5h2.5"/><path stroke="#4B48EA" d="M26 25.5h-.5v.5h.5v-.5Z"/><path stroke="#E7FCF6" d="M27 24v3.5"/><path stroke="#A2FDF2" d="M24 24.5h2.5"/><path stroke="#36CAB8" d="M24.5 25v2.5"/><path stroke="#23EED6" d="M25 27h2.5"/><path stroke="#4B48EA" d="M6.5 25.5H6v.5h.5v-.5Z"/><path stroke="#E7FCF6" d="M7.5 24v3.5"/><path stroke="#A2FDF2" d="M4.5 24.5H7"/><path stroke="#36CAB8" d="M5 25v2.5"/><path stroke="#23EED6" d="M5.5 27H8"/><path stroke="#4B3F28" d="M18 2h5.5M18 30h5.5m-19-2H7m0 1h1.5M29 23v1.5M23.5 29H25m0-1h3v-3.5"/><path stroke="#EC9B00" d="M8 5.5h1.5m0-1H14m-.5-2V4"/><path stroke="#FFC227" d="M7 4h2.5M8 4.5h1.5M8.5 3H13"/><path stroke="#FFC327" d="M9.5 3.5H13"/><path stroke="#FFC227" d="M23.5 4H25h-1.5Zm0 0H23V3h-3.5v.5H23v1h.5V4Zm5.5 9v-2m0-1.5V11m-1-2V7.5m-.5 2V8m2 1.5H28m1 1.5-.5-1v3m.5 10v-3.5h-.5V23m-1-.5v1h.5v1m-9 4h4V28m.5-.5V27m0 .5H23v.5m.5-.5-.5.5m0 0h2-2Zm-4 1h4v.5M13 29H9m-.5 0H9m0 0v-.5m0-.5h-.5m.5 0v-.5m0 .5v.5M7 28h1.5m0 0v-.5H9m.5 0H9m0 1h4M3 19v3.5m0 .5v-.5m0 0h.5m1.5 0h-.5m0 0V24m0-1.5H4m-.5 0H4m-.5 0V19m.5 3.5v2M3 13V9.5M3 9v.5m0 0h.5V13M4 8v-.5V9 8Zm.5.5V8v1.5-1Z"/><path stroke="#EC9B00" d="M5.5 8v1.5m-1 0v4h-2m0 5h2V22m1 .5V24M8 26.5h1.5m0 1h4v2m5 0v-2h4m0-1H24m2.5-4V24m1-1.5v-4h2m0-5h-2v-4m-1 0V8M24 5.5h-1.5m0-1h-4v-2"/><path stroke="#4B3F28" d="M11.5 10v1m-1 0v1m-.5 8.5h1"/><path stroke="#EC9B00" d="M13 9.5h3"/><path stroke="#FFE380" d="M21.5 13v6m-2-8v1m1 0v1m0 6v1m-1 0v1"/><path stroke="#FFDA57" d="M12.5 20v1m-1-2v1m0-8v1m1-2v1"/><path stroke="#FFB700" d="M13 20.5h6m1-1h-1"/><path stroke="#FFC227" d="M20.5 19v-6m-.5-.5h-1m0-1h-6"/><path stroke="#FFB700" d="M13 12.5h-1m0 1h-1m.5.5v5m.5.5h1"/><path stroke="#FFE380" d="M13 12.5h6m.5.5v6"/><path stroke="#FFDA57" d="M13 19.5h6M12.5 13v6"/><path stroke="#FFB700" d="M13.5 18v-4"/><path stroke="#FEEFBC" d="M19.5 11v1m1 0v1M16 10.5h3m2.5 2.5v3m-2-3v3m-1-2v-2m-2.5.5h2"/></svg>

<svg width="32" height="32" viewBox="0 0 32 32" fill="none" xmlns="http://www.w3.org/2000/svg">
<path d="M1 15V17" stroke="#4B3F28"/>
<path d="M1.5 14.5H5" stroke="#4B3F28"/>
<path d="M5 13.5H8.5" stroke="#4B3F28"/>
<path d="M8.5 12.5H12" stroke="#4B3F28"/>
<path d="M12.5 12V8.5" stroke="#4B3F28"/>
<path d="M13.5 8.5V5" stroke="#4B3F28"/>
<path d="M14.5 5V1.5" stroke="#4B3F28"/>
<path d="M15 1H17" stroke="#4B3F28"/>
<path d="M17.5 1.5V5" stroke="#4B3F28"/>
<path d="M18.5 5V8.5" stroke="#4B3F28"/>
<path d="M19.5 8.5V12M20 12.5H23.5" stroke="#4B3F28"/>
<path d="M23.5 13.5H27" stroke="#4B3F28"/>
<path d="M27 14.5H30.5" stroke="#4B3F28"/>
<path d="M31 15V17" stroke="#4B3F28"/>
<path d="M30.5 17.5H27" stroke="#4B3F28"/>
<path d="M27 18.5H23.5" stroke="#4B3F28"/>
<path d="M23.5 19.5H20" stroke="#4B3F28"/>
<path d="M19.5 20V23.5" stroke="#4B3F28"/>
<path d="M18.5 23.5V27" stroke="#4B3F28"/>
<path d="M17.5 27V30.5" stroke="#4B3F28"/>
<path d="M17 31H15" stroke="#4B3F28"/>
<path d="M14.5 30.5V27" stroke="#4B3F28"/>
<path d="M13.5 27V23.5" stroke="#4B3F28"/>
<path d="M12.5 23.5V20" stroke="#4B3F28"/>
<path d="M12 19.5H8.5" stroke="#4B3F28"/>
<path d="M8.5 18.5H5" stroke="#4B3F28"/>
<path d="M5 17.5H1.5" stroke="#4B3F28"/>
<path d="M16 16V1.5H15V5H14V8.5H13V12H12V13H13V14H14V15H15V16H16Z" fill="#FFC24B"/>
<path d="M17 1.5H16V16H17V15H18V14H19V13H20V12H19V8.5H18V5H17V1.5Z" fill="#FEF0BC"/>
<path d="M16 30.5V16H17V17H18V18H19V19H20V20H19V23.5H18V27H17V30.5H16Z" fill="#FFE073"/>
<path d="M15 17V16H16V30.5H15V27H14V23.5H13V20H12V19H13V18H14V17H15Z" fill="#C16B1B"/>
<path d="M13 22.5H16" stroke="#A25916"/>
<path d="M19 22.5H16M13 10.5H12" stroke="#EC9B00"/>
<path d="M11 11.5H12" stroke="#EC9B00"/>
<path d="M18.5 22V21" stroke="#EC9B00"/>
<path d="M10.5 12V13" stroke="#EC9B00"/>
<path d="M9.5 13V19" stroke="#EC9B00"/>
<path d="M15 16H1.5V15H5V14H8.5V13H12H13V14H14V15H15V16Z" fill="#FFDA57"/>
<path d="M1.5 17V16H15V17H14V18H13V19H8.5V18H5V17H1.5Z" fill="#F8AF23"/>
<path d="M10.5 19V20" stroke="#C16B1B"/>
<path d="M11.5 20V21" stroke="#C16B1B"/>
<path d="M12.5 21V22" stroke="#C16B1B"/>
<path d="M30.5 16H17V17H18V18H19V19H23.5V18H27V17H30.5V16Z" fill="#FFC24B"/>
<path d="M30.5 16H17V15H18V14H19V13H23.5V14H27V15H30.5V16Z" fill="#FFE381"/>
<path d="M20 10.5H21" stroke="#4B3F28"/>
<path d="M21 11.5H22" stroke="#4B3F28"/>
<path d="M21 20.5H22" stroke="#4B3F28"/>
<path d="M20 21.5H21" stroke="#4B3F28"/>
<path d="M11 21.5H12" stroke="#4B3F28"/>
<path d="M13 10.5H19" stroke="#FFE380"/>
<path d="M13 21.5H19" stroke="#FFDA57"/>
<path d="M16 9.5H19" stroke="#FFEDAC"/>
<path d="M19.5 21V22" stroke="#EC9B00"/>
<path d="M20.5 20V21" stroke="#EC9B00"/>
<path d="M21.5 19V20" stroke="#EC9B00"/>
<path d="M22.5 19V16" stroke="#EC9B00"/>
<path d="M22.5 16V13" stroke="#FFC227"/>
<path d="M21 12.5H22" stroke="#FFC227"/>
<path d="M20 11.5H21" stroke="#FFC227"/>
<path d="M19 10.5H20" stroke="#FFC227"/>
<path d="M16 9.5H19" stroke="#FFC227"/>
<path d="M9.5 13V16" stroke="#EC9B00"/>
<path d="M9.5 19V16" stroke="#C16B1B"/>
<path d="M10.5 13V19" stroke="#FFDA57"/>
<path d="M5.5 13V9.5" stroke="#4B3F28"/>
<path d="M5.5 22.5V19" stroke="#4B3F28"/>
<path d="M26.5 22.5V19" stroke="#4B3F28"/>
<path d="M26.5 13V9.5" stroke="#4B3F28"/>
<path d="M13 5.5L9.5 5.5" stroke="#4B3F28"/>
<path d="M22.5 5.5L19 5.5" stroke="#4B3F28"/>
<path d="M22.5 26.5H19" stroke="#4B3F28"/>
<path d="M13 26.5H9.5" stroke="#4B3F28"/>
<path d="M9.5 6.5H8.5V8.5H6.5V9.5" stroke="#4B3F28"/>
<path d="M2 14V9" stroke="#4B3F28"/>
<path d="M2 23V18" stroke="#4B3F28"/>
<path d="M30 23V18" stroke="#4B3F28"/>
<path d="M30 14V9" stroke="#4B3F28"/>
<path d="M3 9V7.5" stroke="#4B3F28"/>
<path d="M4 7.5V4.5" stroke="#4B3F28"/>
<path d="M3.5 4H7" stroke="#4B3F28"/>
<path d="M7 3H8.5" stroke="#4B3F28"/>
<path d="M3 23V24.5" stroke="#4B3F28"/>
<path d="M4 24.5V28V28.5" stroke="#4B3F28"/>
<path d="M8.5 2H14" stroke="#4B3F28"/>
<path d="M8.5 30H14" stroke="#4B3F28"/>
<path d="M6.5 22.5V23.5H8.5V25.5H9.5" stroke="#4B3F28"/>
<path d="M22.5 6.5H23.5V8.5H25.5V9.5" stroke="#4B3F28"/>
<path d="M22.5 25.5H23.5V23.5H25.5V22.5" stroke="#4B3F28"/>
<path d="M23.5 3H25" stroke="#4B3F28"/>
<path d="M25 4H28V7.5" stroke="#4B3F28"/>
<path d="M29 7.5V9" stroke="#4B3F28"/>
<path d="M6.5 6H6V6.5H6.5V6Z" stroke="#4B48EA"/>
<path d="M7.5 4.5V8" stroke="#E7FCF6"/>
<path d="M4.5 5H7" stroke="#A2FDF2"/>
<path d="M5 5.5V8" stroke="#36CAB8"/>
<path d="M7.5 4.5V8" stroke="#E7FCF6"/>
<path d="M4.5 5H7" stroke="#A2FDF2"/>
<path d="M5 5.5V8" stroke="#36CAB8"/>
<path d="M5.5 7.5H8" stroke="#23EED6"/>
<path d="M16.5 15.5H15.5V16.5H16.5V15.5Z" stroke="#4B48EA"/>
<path d="M18.5 13V14" stroke="#FFE380"/>
<path d="M14 13.5H13" stroke="#FFDA57"/>
<path d="M14 13.5H18" stroke="#FFC227"/>
<path d="M18.5 14V18" stroke="#FFC227"/>
<path d="M18 18.5H14" stroke="#FFB700"/>
<path d="M13.5 18V19" stroke="#FFDA57"/>
<path d="M19 18.5H18" stroke="#FFE380"/>
<path d="M17.5 14V18" stroke="#E7FCF6"/>
<path d="M14 14.5H17" stroke="#A2FDF2"/>
<path d="M14.5 15V18" stroke="#36CAB8"/>
<path d="M15 17.5H18" stroke="#23EED6"/>
<path d="M26 6H25.5V6.5H26V6Z" stroke="#4B48EA"/>
<path d="M27 4.5V8" stroke="#E7FCF6"/>
<path d="M24 5H26.5" stroke="#A2FDF2"/>
<path d="M24.5 5.5V8" stroke="#36CAB8"/>
<path d="M25 7.5H27.5" stroke="#23EED6"/>
<path d="M26 25.5H25.5V26H26V25.5Z" stroke="#4B48EA"/>
<path d="M27 24V27.5" stroke="#E7FCF6"/>
<path d="M24 24.5H26.5" stroke="#A2FDF2"/>
<path d="M24.5 25V27.5" stroke="#36CAB8"/>
<path d="M25 27H27.5" stroke="#23EED6"/>
<path d="M6.5 25.5H6V26H6.5V25.5Z" stroke="#4B48EA"/>
<path d="M7.5 24V27.5" stroke="#E7FCF6"/>
<path d="M4.5 24.5H7" stroke="#A2FDF2"/>
<path d="M5 25V27.5" stroke="#36CAB8"/>
<path d="M5.5 27H8" stroke="#23EED6"/>
<path d="M18 2H23.5" stroke="#4B3F28"/>
<path d="M18 30H23.5" stroke="#4B3F28"/>
<path d="M4.5 28H7" stroke="#4B3F28"/>
<path d="M7 29H8.5" stroke="#4B3F28"/>
<path d="M29 23V24.5" stroke="#4B3F28"/>
<path d="M23.5 29H25" stroke="#4B3F28"/>
<path d="M25 28H28V24.5" stroke="#4B3F28"/>
<path d="M8 5.5H9.5" stroke="#EC9B00"/>
<path d="M9.5 4.5H14" stroke="#EC9B00"/>
<path d="M13.5 2.5V4" stroke="#EC9B00"/>
<path d="M7 4H9.5M8 4.5H9.5" stroke="#FFC227"/>
<path d="M8.5 3H13" stroke="#FFC227"/>
<path d="M9.5 3.5H13" stroke="#FFC327"/>
<path d="M23.5 4H25H24.5H23.5ZM23.5 4H23V3H19.5V3.5H23V4.5H23.5V4Z" stroke="#FFC227"/>
<path d="M29 13V11M29 9.5V11M28 9V7.5M27.5 9.5V8M29.5 9.5H28M29 11L28.5 10V13" stroke="#FFC227"/>
<path d="M29 23V22V19.5H28.5V23M27.5 22.5V23.5H28V24.5" stroke="#FFC227"/>
<path d="M19 28.5H23V28M23.5 27.5V27M23.5 27.5H23V28M23.5 27.5L23 28M23 28H24.5H25H23ZM19 29H23V29.5" stroke="#FFC227"/>
<path d="M13 29H9M8.5 29H9M9 29V28.5M9 28H8.5M9 28V27.5M9 28V28.5M7 28H8.5M8.5 28V27.5H9M9.5 27.5H9M9 28.5H12.5H13" stroke="#FFC227"/>
<path d="M3 19V22.5M3 23V22.5M3 22.5H3.5M5 22.5H4.5M4.5 22.5V24M4.5 22.5H4M3.5 22.5H4M3.5 22.5V21V19M4 22.5V24.5" stroke="#FFC227"/>
<path d="M3 13V9.5M3 9V9.5M3 9.5H3.5V13M4 8V7.5V9V8ZM4.5 8.5V8V9.5V8.5Z" stroke="#FFC227"/>
<path d="M5.5 8V9.5" stroke="#EC9B00"/>
<path d="M4.5 9.5V13.5H2.5" stroke="#EC9B00"/>
<path d="M2.5 18.5H4.5V22" stroke="#EC9B00"/>
<path d="M5.5 22.5V24" stroke="#EC9B00"/>
<path d="M8 26.5H9.5" stroke="#EC9B00"/>
<path d="M9.5 27.5H13.5V29.5" stroke="#EC9B00"/>
<path d="M18.5 29.5V27.5H22.5" stroke="#EC9B00"/>
<path d="M22.5 26.5H24" stroke="#EC9B00"/>
<path d="M26.5 22.5V24" stroke="#EC9B00"/>
<path d="M27.5 22.5V18.5H29.5" stroke="#EC9B00"/>
<path d="M29.5 13.5H27.5V9.5" stroke="#EC9B00"/>
<path d="M26.5 9.5V8" stroke="#EC9B00"/>
<path d="M24 5.5H22.5" stroke="#EC9B00"/>
<path d="M22.5 4.5H18.5V2.5" stroke="#EC9B00"/>
<path d="M11.5 10V11" stroke="#4B3F28"/>
<path d="M10.5 11V12" stroke="#4B3F28"/>
<path d="M10 20.5H11" stroke="#4B3F28"/>
<path d="M13 9.5H16" stroke="#EC9B00"/>
<path d="M21.5 13V19M19.5 11V12" stroke="#FFE380"/>
<path d="M20.5 12V13" stroke="#FFE380"/>
<path d="M20.5 19V20" stroke="#FFE380"/>
<path d="M19.5 20V21" stroke="#FFE380"/>
<path d="M12.5 20V21M11.5 19V20" stroke="#FFDA57"/>
<path d="M11.5 12V13" stroke="#FFDA57"/>
<path d="M12.5 11V12" stroke="#FFDA57"/>
<path d="M13 20.5H19M20 19.5H19" stroke="#FFB700"/>
<path d="M20.5 19V13" stroke="#FFC227"/>
<path d="M20 12.5H19" stroke="#FFC227"/>
<path d="M19 11.5H13" stroke="#FFC227"/>
<path d="M13 12.5H12" stroke="#FFB700"/>
<path d="M12 13.5H11" stroke="#FFB700"/>
<path d="M11.5 14V19" stroke="#FFB700"/>
<path d="M12 19.5H13" stroke="#FFB700"/>
<path d="M13 12.5H19" stroke="#FFE380"/>
<path d="M19.5 13V19" stroke="#FFE380"/>
<path d="M13 19.5H19" stroke="#FFDA57"/>
<path d="M12.5 13V19" stroke="#FFDA57"/>
<path d="M13.5 18V14" stroke="#FFB700"/>
<path d="M19.5 11V12" stroke="#FEEFBC"/>
<path d="M20.5 12V13" stroke="#FEEFBC"/>
<path d="M16 10.5H19" stroke="#FEEFBC"/>
<path d="M21.5 13V16" stroke="#FEEFBC"/>
<path d="M19.5 13V16" stroke="#FEEFBC"/>
<path d="M18.5 14V12" stroke="#FEEFBC"/>
<path d="M16 12.5H18" stroke="#FEEFBC"/>
</svg>
